assets/images/StarterX-Badges_Growth-Opportunities.svg

<?xml version="1.0" encoding="UTF-8"?>
<svg id="Layer_1" data-name="Layer 1" xmlns="http://www.w3.org/2000/svg" xmlns:xlink="http://www.w3.org/1999/xlink" viewBox="0 0 80 80">
  <defs>
    <style>
      .cls-1 {
        fill: url(#linear-gradient);
      }

      .cls-1, .cls-2 {
        stroke-width: 0px;
      }

      .cls-2 {
        fill: url(#linear-gradient-2);
      }
    </style>
    <linearGradient id="linear-gradient" x1=".78" y1="3.78" x2="82.68" y2="79.44" gradientUnits="userSpaceOnUse">
      <stop offset="0" stop-color="#b1a45d"/>
      <stop offset="1" stop-color="#453e1b"/>
    </linearGradient>
    <linearGradient id="linear-gradient-2" x1=".79" y1="3.77" x2="82.7" y2="79.43" xlink:href="#linear-gradient"/>
  </defs>
  <path class="cls-1" d="M40.3,1.18C18.39,1.1,1.18,18.1,1.19,39.85c0,21.94,16.94,38.97,38.77,38.97,21.85,0,38.85-17.02,38.85-38.9,0-21.58-16.98-38.64-38.51-38.73ZM40,71.29c-17.28,0-31.29-14.01-31.29-31.29s14.01-31.29,31.29-31.29,31.29,14.01,31.29,31.29-14.01,31.29-31.29,31.29Z"/>
  <path class="cls-2" d="M57.45,28.5c-2.58,0-5.16,0-7.74,0-1.04,0-1.91.76-2.01,1.74-.11,1.08.54,2.01,1.58,2.23.15.03.31.04.46.04.88,0,1.76,0,2.64,0,.1,0,.21-.03.3.03,0,.11-.09.16-.16.22-2.18,2.18-4.37,4.36-6.54,6.54-.22.22-.34.19-.54-.01-2.02-2.03-4.05-4.06-6.08-6.08-1.02-1.02-2.17-1.02-3.19,0-2.59,2.58-12.61,12.25-15.19,14.84-1.11,1.12-.71,2.85.78,3.39.06.02.12.04.18.06h.87c.47-.13.85-.4,1.19-.75,2.02-2.02,11.47-11.13,13.49-13.15.21-.21.33-.21.54,0,2.02,2.03,4.06,4.05,6.08,6.08.34.34.71.6,1.17.73h.87c.46-.13.83-.39,1.17-.73,2.67-2.67,5.34-5.34,8.02-8.01.08-.08.13-.18.3-.22v.65c0,.77,0,1.53,0,2.3,0,1.04.67,1.85,1.65,2.04.98.18,1.92-.37,2.28-1.35.03-.07.05-.14.07-.2v-8.81c-.39-1.13-1.02-1.58-2.2-1.58Z"/>
</svg>

<svg width="80" height="80" viewBox="0 0 80 80" fill="none" xmlns="http://www.w3.org/2000/svg">
<path d="M40.3 1.17997C18.39 1.09997 1.18001 18.1 1.19001 39.85C1.19001 61.79 18.13 78.82 39.96 78.82C61.81 78.82 78.81 61.8 78.81 39.92C78.81 18.34 61.83 1.27997 40.3 1.18997V1.17997ZM40 71.29C22.72 71.29 8.71001 57.28 8.71001 40C8.71001 22.72 22.72 8.70997 40 8.70997C57.28 8.70997 71.29 22.72 71.29 40C71.29 57.28 57.28 71.29 40 71.29Z" fill="#008A9B"/>
<path d="M57.45 28.5C54.87 28.5 52.29 28.5 49.71 28.5C48.67 28.5 47.8 29.26 47.7 30.24C47.59 31.32 48.24 32.25 49.28 32.47C49.43 32.5 49.59 32.51 49.74 32.51C50.62 32.51 51.5 32.51 52.38 32.51C52.48 32.51 52.59 32.48 52.68 32.54C52.68 32.65 52.59 32.7 52.52 32.76C50.34 34.94 48.15 37.12 45.98 39.3C45.76 39.52 45.64 39.49 45.44 39.29C43.42 37.26 41.39 35.23 39.36 33.21C38.34 32.19 37.19 32.19 36.17 33.21C33.58 35.79 23.56 45.46 20.98 48.05C19.87 49.17 20.27 50.9 21.76 51.44C21.82 51.46 21.88 51.48 21.94 51.5H22.81C23.28 51.37 23.66 51.1 24 50.75C26.02 48.73 35.47 39.62 37.49 37.6C37.7 37.39 37.82 37.39 38.03 37.6C40.05 39.63 42.09 41.65 44.11 43.68C44.45 44.02 44.82 44.28 45.28 44.41H46.15C46.61 44.28 46.98 44.02 47.32 43.68C49.99 41.01 52.66 38.34 55.34 35.67C55.42 35.59 55.47 35.49 55.64 35.45V36.1C55.64 36.87 55.64 37.63 55.64 38.4C55.64 39.44 56.31 40.25 57.29 40.44C58.27 40.62 59.21 40.07 59.57 39.09C59.6 39.02 59.62 38.95 59.64 38.89V30.08C59.25 28.95 58.62 28.5 57.44 28.5H57.45Z" fill="#008A9B"/>
</svg>
